X:2075
T:Carval Yoseph
C:Traditional 
O:Isle of Man
Z:Clague collection
B:Kiaull Vannin #75
N:Variation #2 of Carval Yoseph, (Journal of the Folk Song Society Vol.7, 29).
N:See also KV 26, 77, 107 
M:3/4 
L:1/4
Q:100 
K:D 
d d/c/ B|A2 F|G2 B|A3|A d f|(fe) d|e3|
Ad f|(ed) d|B2 d|A3 |dd F|(AB) c|d3|| 

